X:21
T:folantein, y [The valentine] Dm
C:traddodiadol
H:noted by Jennie Williams, from the singing of Evan Rowlands, april 1911.
N:it was said to be very popular in the mynydd bach district 50 years
ago(1861).
O:traditional welsh
Z:ceri rhys matthews
M:2/4
L:1/8
Q:1/2=30
K:Dm
A|Adcd|d2AA|Adcd|d2AA|
dddA|ABAA|FAGF|E2D:||
